kora/status/symbolic/location-services-disabled-symbolic.svg

<svg xmlns="http://www.w3.org/2000/svg" width="16" height="16" version="1.1">
 <path style="fill:#dfdfdf;opacity:0.35" d="M 2.5 0.5 L 1 2 L 3.3066406 4.3066406 A 5 4.9989288 0 0 0 3 5.9980469 C 3 6.1700101 3.01425 6.3300829 3.03125 6.4980469 C 3.04525 6.6650111 3.06675 6.834082 3.09375 6.9980469 C 3.66575 10.510294 6 13.000428 8 15 C 8.9367612 14.063439 9.9448251 13.018794 10.8125 11.8125 L 13.5 14.5 L 15 13 L 13.355469 11.355469 L 9.4335938 7.4335938 L 8.7402344 6.7402344 L 8.5 6.5 L 7.5 5.5 L 3.9472656 1.9472656 L 2.5 0.5 z M 8 1 A 5 4.9989288 0 0 0 5.6308594 1.6074219 L 8.0273438 4.0039062 A 2 2 0 0 1 9.9960938 5.9726562 L 10.484375 6.4609375 L 12.537109 8.5136719 C 12.695444 8.0303573 12.820331 7.5257624 12.90625 6.9980469 C 12.93325 6.834082 12.95575 6.6650111 12.96875 6.4980469 C 12.98575 6.3300829 13 6.1700101 13 5.9980469 A 5 4.9989288 0 0 0 8 1 z"/>
</svg>

<svg xmlns="http://www.w3.org/2000/svg" style="clip-rule:evenodd;fill-rule:evenodd;stroke-linejoin:round;stroke-miterlimit:2" version="1.1" viewBox="0 0 16 16">
 <defs>
  <style id="current-color-scheme" type="text/css">
   .ColorScheme-Text { color:#dfdfdf; } .ColorScheme-Highlight { color:#4285f4; } .ColorScheme-NeutralText { color:#ff9800; } .ColorScheme-PositiveText { color:#4caf50; } .ColorScheme-NegativeText { color:#f44336; }
  </style>
 </defs>
 <path style="fill-opacity:.35;;fill:currentColor;" class="ColorScheme-Text" d="m2.5 0.5-1.5 1.5 2.307 2.307c-0.199 0.542-0.303 1.114-0.307 1.691 0 0.172 0.014 0.332 0.031 0.5 0.014 0.167 0.036 0.336 0.063 0.5 0.572 3.512 2.906 6.002 4.906 8.002 0.937-0.937 1.945-1.981 2.813-3.188l2.687 2.688 1.5-1.5-12.5-12.5zm5.5 0.5c-0.828 3e-3 -1.642 0.212-2.369 0.607l2.396 2.397c1.074 0.017 1.952 0.895 1.969 1.969l2.541 2.541c0.158-0.484 0.283-0.988 0.369-1.516 0.027-0.164 0.05-0.333 0.063-0.5 0.017-0.168 0.031-0.328 0.031-0.5-0-2.742-2.257-4.998-5-4.998z"/>
</svg>
